X: 22848
T: Lark In The Morning, The
R: jig
M: 6/8
K: Dmajor
~A3 AdB|AFA D3|AFA gfe|fdB BAF|
~A3 AdB|AFA D2 f|gfe fed|edB BdB:|
Adf ~a3|abf a3|Adf a2 f|gfe fdB|
Adf ~a3|abf a2 f|gfe fed|edB BdB:|

